X:1
T:Alleluia Perenne, 10.10.7
T:William Henry Monk, 1868
T:Alleluia Perenne, 10.10.7
T:Public Domain
C:William Henry Monk, 1868
Z:Public Domain
%%score 1 ( 2 3 )
L:1/8
M:4/4
K:D
V:1 treble 
V:2 bass 
V:3 bass 
V:1
 [EA]4 | [DF]3 [DF] [DF]2 [CG]2 | [DA]2 [Dd]2 [DB]2 [Dd]2 | [DA]6 [DA]2 | [DB]2 [DA]2 [Gc]2 [Fd]2 | %5
 [Ge]2 [Fd]2 [Gc]2 [GB]2 | [GA]6 [FA]2 |[M:3/2] [GB]6 [DA]2 [DB]2 [Ge]2 | [Gd]4 [Fd]4 |] %9
V:2
 [C,A,]4 | [D,A,]3 [D,A,] [D,A,]2 [E,A,]2 | [F,A,]2 [D,F,]2 [D,G,]2 [D,B,]2 | [D,F,]6 [F,A,]2 | %4
 G,2 [F,A,]2 [E,A,]2 [D,A,]2 | [D,A,]2 [D,A,]2 [A,,E]2 [A,,D]2 | [A,,C]6 [D,D]2 | %7
[M:3/2] [G,D]6 [F,A,]2 G,2 [E,A,]2 | A,4 [D,A,]4 |] %9
V:3
 x4 | x8 | x8 | x8 | G,2 x6 | x8 | x8 |[M:3/2] x8 G,2 x2 | A,4 x4 |] %9

